!!!OTL: Die elfjaehrige Markgraefin Mich freud, schoens Lieb, dein schoen anblick,
!!!ARE: Europa, Mitteleuropa, Deutschland
!!!YOR: 2, S. 294
!!    1556 gedruckt in Nuernberg
!!!SCT: Q1053F
!!!YEM: Copyright 1995, estate of Helmut Schaffrath.
**kern
*ICvox
*Ivox
!! Mixed meters:  3/2; 4/2
*M4/2
*k[b-]
*F:
{4f
4f
4g
=1
4a
4.cc
8b-
8a
8b-
4g
4g
=2
2f
4r}
{4f
4cc
4dd
=3
4ee
4cc
4.ff
8ee
4dd
4cc
2dd
=4
*M3/2
2cc
4r}
{4cc
4cc
4cc
=5
4.ff
16ee
16dd
4cc
4dd
4cc
4cc
=6
2a}
{2cc
4f
4f
=7
*M4/2
4a
4cc
4b-
4a
4g
4f
2g
=8
2.f}
==
!!!AGN: Liebes - Lied
!! Melodievergleich zu Q0053 , anderes Lied.
!!!ONB: ESAC (Essen Associative Code) Database: BALLADE
!!!AMT: irregular
!!!AIN: vox
!!!EED: Helmut Schaffrath
!!!EEV: 1.0
*-
